wordpress-theme/_dev/images/itg.svg

<?xml version="1.0" encoding="utf-8"?>
<!-- Generator: Adobe Illustrator 19.0.0, SVG Export Plug-In . SVG Version: 6.00 Build 0)  -->
<svg version="1.1" id="Layer_1" xmlns="http://www.w3.org/2000/svg" xmlns:xlink="http://www.w3.org/1999/xlink" x="0px" y="0px"
	 viewBox="0 0 25.7 26.6" style="enable-background:new 0 0 25.7 26.6;" xml:space="preserve">
<style type="text/css">
	.st0{fill:#FDDFC7;}
</style>
<g id="XMLID_7579_">
	<path id="XMLID_7580_" class="st0" d="M19.2,4.8H8C6,4.8,4.4,6.4,4.4,8.3v11.2C4.4,21.4,6,23,8,23h11.2c1.9,0,3.5-1.6,3.5-3.5V12
		V8.3C22.7,6.4,21.1,4.8,19.2,4.8z M20.2,6.9h0.4V10l-3.1,0l0-3.1L20.2,6.9z M11,12c0.6-0.8,1.5-1.3,2.6-1.3c1.1,0,2,0.5,2.6,1.3
		c0.4,0.5,0.6,1.2,0.6,1.9c0,1.8-1.4,3.2-3.2,3.2c-1.8,0-3.2-1.4-3.2-3.2C10.4,13.2,10.6,12.6,11,12z M20.9,19.5
		c0,1-0.8,1.7-1.7,1.7H8c-1,0-1.7-0.8-1.7-1.7V12h2.7c-0.2,0.6-0.4,1.2-0.4,1.9c0,2.8,2.2,5,5,5c2.8,0,5-2.2,5-5
		c0-0.7-0.1-1.3-0.4-1.9h2.7V19.5z"/>
</g>
</svg>

<?xml version="1.0" encoding="UTF-8" standalone="no"?>
<!-- Generator: Adobe Illustrator 19.0.0, SVG Export Plug-In . SVG Version: 6.00 Build 0)  -->

<svg
   xmlns:dc="http://purl.org/dc/elements/1.1/"
   xmlns:cc="http://creativecommons.org/ns#"
   xmlns:rdf="http://www.w3.org/1999/02/22-rdf-syntax-ns#"
   xmlns:svg="http://www.w3.org/2000/svg"
   xmlns="http://www.w3.org/2000/svg"
   xmlns:sodipodi="http://sodipodi.sourceforge.net/DTD/sodipodi-0.dtd"
   xmlns:inkscape="http://www.inkscape.org/namespaces/inkscape"
   version="1.1"
   id="Layer_1"
   x="0px"
   y="0px"
   viewBox="0 0 25.7 26.6"
   style="enable-background:new 0 0 25.7 26.6;"
   xml:space="preserve"
   sodipodi:docname="itg.svg"
   inkscape:version="0.92.2 (5c3e80d, 2017-08-06)"><metadata
     id="metadata11"><rdf:RDF><cc:Work
         rdf:about=""><dc:format>image/svg+xml</dc:format><dc:type
           rdf:resource="http://purl.org/dc/dcmitype/StillImage" /></cc:Work></rdf:RDF></metadata><defs
     id="defs9" /><sodipodi:namedview
     pagecolor="#ffffff"
     bordercolor="#666666"
     borderopacity="1"
     objecttolerance="10"
     gridtolerance="10"
     guidetolerance="10"
     inkscape:pageopacity="0"
     inkscape:pageshadow="2"
     inkscape:window-width="1920"
     inkscape:window-height="1016"
     id="namedview7"
     showgrid="false"
     inkscape:zoom="8.8721803"
     inkscape:cx="13.075424"
     inkscape:cy="13.3"
     inkscape:window-x="0"
     inkscape:window-y="27"
     inkscape:window-maximized="1"
     inkscape:current-layer="Layer_1" /><style
     type="text/css"
     id="style2">
	.st0{fill:#FDDFC7;}
</style><path
     style="fill:#ffffff;fill-opacity:1"
     inkscape:connector-curvature="0"
     d="M 19.2,4.8 H 8 C 6,4.8 4.4,6.4 4.4,8.3 V 19.5 C 4.4,21.4 6,23 8,23 h 11.2 c 1.9,0 3.5,-1.6 3.5,-3.5 V 12 8.3 c 0,-1.9 -1.6,-3.5 -3.5,-3.5 z m 1,2.1 h 0.4 V 10 H 17.5 V 6.9 Z M 11,12 c 0.6,-0.8 1.5,-1.3 2.6,-1.3 1.1,0 2,0.5 2.6,1.3 0.4,0.5 0.6,1.2 0.6,1.9 0,1.8 -1.4,3.2 -3.2,3.2 -1.8,0 -3.2,-1.4 -3.2,-3.2 0,-0.7 0.2,-1.3 0.6,-1.9 z m 9.9,7.5 c 0,1 -0.8,1.7 -1.7,1.7 H 8 C 7,21.2 6.3,20.4 6.3,19.5 V 12 H 9 c -0.2,0.6 -0.4,1.2 -0.4,1.9 0,2.8 2.2,5 5,5 2.8,0 5,-2.2 5,-5 0,-0.7 -0.1,-1.3 -0.4,-1.9 h 2.7 z"
     class="st0"
     id="XMLID_7580_" /></svg>
